X:1
T:Missa La Bataille - Kyrie
T:Clément Jannequin (c. 1485 – 1558)
T:Missa La Bataille - Kyrie
T:(C) Wim Looyestijn - 2015. May be freely copied for non-commercial use.
T:(C) Wim Looyestijn - 2015. May be freely copied for non-commercial use.
T:(C) Wim Looyestijn - 2015. May be freely copied for non-commercial use.
T:(C) Wim Looyestijn - 2015. May be freely copied for non-commercial use.
T:(C) Wim Looyestijn - 2015. May be freely copied for non-commercial use.
C:Clément Jannequin
Z:(C) Wim Looyestijn - 2015. May be freely copied for non-commercial use.
%%score [ 1 2 3 4 ]
L:1/8
Q:1/4=240
M:2/2
K:F
V:1 alto1 nm="Discantus" snm="S"
V:2 alto nm="Altus" snm="A"
V:3 alto nm="Tenor" snm="T"
V:4 bass nm="Bassus" snm="B"
V:1
 x8 | A12 x4 |[K:G] z16 | x16 | d12 d4 | d16 | B12 B4 | B16 | z4 A8 A4 | A8 z4 d4- | d4 d4 B6 A2 | %11
w: ||||Ky- ri-|e,|ky- ri-|e,|ky- ri-|e, ky-|* ri- e, *|
w: |||||||||||
w: |||||||||||
 G4 B8 A2 G2 | F16- | F16 | z16 | z16 | z4 A4 A4 A4 | d12 c2 B2 | A2 B2 c2 d2 e4 d4- | d4 c4 d8 | %20
w: * ky- ri- *|e.||||e- le- y-|son,- * *|* * * * * e-|* ley- son,|
w: |||||||||
w: |||||||||
 z4 D4 E8 | F8 z4 D4 | E4 F4 G8 | z4 D4 E4 F4 | G4 A4 z4 D4 | E4 F4 G4 A4 | B8 z4 B4 | %27
w: ky- ri-|e, ky-|* ri- e,|ky- * *|ri- e, ky-|* * * ri-|e, e-|
w: |||||||
w: |||||||
 A4 G6 FE F4 | G16- | G16 || B16 | B16 | z8 B8 | d12 c2 B2 | A4 c4 B4 d4- | d2 c2 A4- A2 B2 c2 d2 | %36
w: ley- * * * *|son.||Chris-|te,|||||
w: |||||||||
w: |||||Chris-|te * *|* e- le- *||
 e4 d8 c4 | B6 A2 G8 | F8 z8 | z16 | z16 | z8 G8 | G8 A8 | B6 A2 G4 c4- | c4 B8 A4 | B8 z4 B4 | %46
w: |||||e-|le- y||||
w: ||||||||||
w: y- son, e-|le- * y-|son|||||son, * * e-|* le- y-|son, e-|
 A4 c4 B8 | z8 z4 B4 | A4 c4 B8 | z8 z4 B4 | A4 c4 B8- | B8 A8 | G12 F2 E2 | F16- | F16- | F16 || %56
w: ||||||||||
w: ||||||||||
w: le- y- son,|e-|le- y- son,|e-|le- y- son,|* e-|le- y- *|son.|||
 z16 | z8 z4 B4 | A4 G4 d8 | d8 z8 | z4 A4 B4 d4- | d4 c4 B4 A4- | A2 G2 G8 F4 | G16 | z16 | z16 | %66
w: ||||||||||
w: |Ky-|* * ri-|e,|ky- * *|* ri- e e-|* * le- y-|son,|||
w: ||||||||||
 z16 | z4 D4 D4 D4 | G8 A8 | B4 c8 B4- | B4 A4 B4 d4 | c4 A4 B4 d4 | c4 A4 B4 A4- | A2 G2 G8 F4 | %74
w: ||||||||
w: |e- le- y-|son, *||* * * e-|le- * * *||* * * y-|
w: ||||||||
 G8 z4 D4 | G4 A4 B4 d4 | c4 A4 B4 d4 | c4 A4 B4 A4- | A2 G2 G8 F4 | G16- | G16 |] %81
w: |||||||
w: son, e-|le- * * *|* y- son, *|e- le- * *|* * * y-|son.||
w: |||||||
V:2
 x8 | D12 x4 |[K:G] z16 | x16 | z16 | G12 G4 | G16 | z8 G8- | G4 F2 E2 F6 G2 | F16 | z4 D8 D4 | %11
w: |||||Ky- ri-|e,|ky-|* * * * ri-|e,|ky- ri-|
w: |||||||||||
w: |||||||||||
 B,6 A,2 G,6 A,2 | B,4 A,4 D8- | D8 z8 | z16 | z16 | z8 z4 D4 | D4 D4 G8 | F2 G2 A2 F2 G6 F2 | %19
w: e, * * *|ky- ri- e,||||e-|le- y- son,-||
w: ||||||||
w: ||||||||
 E8 D4 G2 F2 | E2 D2 D8 ^C4 | D16 | z8 z4 G,4 | A,4 B,4 C4 D4 | B,4 A,4 B,8 | A,8 G,4 D4- | %26
w: * e- ley- *||son,|ky-||ri- e, ky-|* ri- e,|
w: |||||||
w: |||||||
 D4 E4 F4 G4 | E4 D2 C2 D8 | B,16- | B,16 || G16- | G16 | G12 F2 E2 | F8 z4 D4 | F4 E4 G6 F2 | %35
w: * e- ley- *||son.||Chris-||te * *||* e- le- *|
w: |||||||||
w: |||||||* Chris-|te * * *|
 D6 E2 F2 G2 A2 F2 | G4 F4 E8 | D6 C2 B,4 G,4 | A,8 z8 | z16 | z16 | z8 E8 | E8 F8 | G16 | %44
w: |son, e- le-||son,||||||
w: ||||||e-|le- y-||
w: ||||||||son,|
 z4 G4 E4 F4 | G8 z4 G4 | F4 E4 G8 | z8 z4 G4 | F4 E4 G8 | z8 z4 G4 | F4 E4 G8- | G4 F2 E2 F8 | %52
w: ||||||||
w: ||||||||
w: e- le- y-|son, e-|le- y- son,|e-|le- y- son,|e-|le- y- son,||
 E4 D8 ^C4 | D16- | D16- | D16 || z16 | z8 G8 | F4 E4 D8 | G8 z8 | z4 F4 G4 D4 | G12 F4 | %62
w: ||||||||||
w: |||||Ky-|* * ri-|e,|ky- * ri-|e e-|
w: e- le- y-|son.|||||||||
 E4 E4 D8 | D16- | D16 | z16 | z16 | z8 z4 G,4 | G,4 G,4 D6 C2 | D2 B,2 E8 D4 | C8 B,4 G4 | %71
w: |||||||||
w: le- * y-|son,||||e-|le- y- son, e-|le- y- son, *|* * e-|
w: |||||||||
 E4 F4 G8 | E4 F4 G4 F4 | E8 D8 | B,6 C2 D4 B,4- | B,2 C2 A,4 G,4 G4 | E4 F4 G8 | E4 F4 G4 F4 | %78
w: |||||||
w: le- * *||y- son,|e- * * le-|* * y- son, e-|le- y- son,|e- le- * *|
w: |||||||
 E4 E4 D8 | B,16- | B,16 |] %81
w: |||
w: * * y-|son.||
w: |||
V:3
 x8 | A,12 x4 |[K:G] z16 | x16 | z16 | z16 | z16 | D12 D4 | D8 D8 | z4 D8 D4 | B,6 A,2 G,6 A,2 | %11
w: |||||||Ky- ri-|e, *|ky- ri-|e, * * *|
w: |||||||||||
 B,2 C2 D8 ^C4 | D8 z4 A,4 | B,4 A,4 D8- | D4 C2 B,2 A,2 B,2 C2 D2 | E2 A,2 D8 ^C4 | D16 | z16 | %18
w: * * ky- ri-|e, e-|le- y- son,||* e- ley- *|son.||
w: |||||||
 z8 z4 G,4 | A,8 B,8 | G,4 A,4 B,4 G,4 | A,6 B,A, B,8 | G,4 A,4 B,4 C4 | D6 CB, A,8 | G,4 D8 B,4 | %25
w: e-|le- y-|son,- e- ley- *||son, ky- * ri-|e, * * *|e- ley- son,|
w: |||||||
 C4 D4 B,4 A,4 | G,2 A,2 B,2 C2 D6 B,2 | C2 B,2 A,2 G,2 A,8 | G,16- | G,16 || D16- | D16 | %32
w: e- ley- * *|||son.||Chris-||
w: |||||||
 B,12 A,2 G,2 | A,16 | z16 | z8 z8 | z16 | B,8 D8- | D4 C2 B,2 A,4 C4 | B,4 D4- D2 C2 A,4- | %40
w: te, * *|||||Chris- te|* * * * e-|le- * * * *|
w: ||||||||
 A,2 B,2 C2 D2 E4 D4- | D2 C2 C4- C2 B,2 B,4- | B,4 G,4 D8- | D8 E8 | D8 C8 | B,16 | z8 z4 D4 | %47
w: * * * * * son,|* e- le- * * *|* y- son,|* e-|le- y-|son,|e-|
w: |||||||
 D4 E4 D8 | z8 z4 D4 | D4 E4- E2 D2 D4- | D4 C4 D8- | D16 | z4 B,8 G,4 | A,8 B,8 | A,16- | A,16 || %56
w: le- y- son,|e-|le- * * * *|* y- son,||e- le-|* y-|son.||
w: |||||||||
 z4 B,4 A,4 G,4 | D16 | z16 | z4 B,4 A,4 G,4 | D16 | D8 z4 D4 | B,4 C4 A,8 | G,8 z4 D,4 | %64
w: ||||||||
w: Ky- ri- *|e,||ky- * *|ri-|e e-|le- * y-|son, e-|
 D,4 D,4 G,8 | A,8 B,4 C4- | C2 B,2 B,8 A,4 | B,16 | z16 | z16 | z8 z4 B,4 | C4 D8 B,4 | C4 D12 | %73
w: |||||||||
w: le- y- *||||||e-|le- * *|y- son,|
 B,4 C4 A,8 | G,16 | z4 D8 B,4 | C4 D4 D4 B,4 | C4 D12 | B,4 C4 A,8 | G,16- | G,16 |] %81
w: ||||||||
w: e- le- y-|son,|e- le-|* y- son, e-|le- *|* * y-|son.||
V:4
 x8 | D,12 x4 |[K:G] z16 | x16 | z16 | z16 | G,12 G,4 | G,16 | D,12 D,4 | D,16 | z4 G,8 G,4 | %11
w: ||||||Ky- ri-|e,|ky- ri-|e,|ky- ri-|
w: |||||||||||
 G,6 F,2 E,8 | D,16 | z4 D,4 D,4 D,4 | G,8 F,2 G,2 A,2 F,2 | G,4 F,4 E,8 | D,16 | z16 | z16 | %19
w: e, * *||e- le- y-|son, * * * *|* e- ley-|son.|||
w: ||||||||
 z8 G,8- | G,4 F,4 E,8 | D,8 G,,4 G,4- | G,4 F,4 E,8 | D,8 z4 D,4 | E,4 F,4 G,8 | z4 D,4 E,4 F,4 | %26
w: e-|* ley- son,|* e- ley-|* * son,|* e-|le- y- son,|e- ley- *|
w: |||||||
 G,4 E,4 D,4 G,4 | C,4 E,4 D,8 | G,,16- | G,,16 || G,16- | G,16- | G,16 | D,16 | z16 | z16 | z16 | %37
w: ||son.||Chris-|||te,||||
w: |||||||||||
 G,12 F,2 E,2 | D,6 E,2 F,4 E,4 | G,6 F,2 D,6 E,2 | F,2 G,2 A,2 F,2 G,4 F,4 | E,6 D,2 G,8 | %42
w: Chris- * *|te e- le- *|||* y- son,|
w: |||||
 E,8 D,8 | G,,4 G,8 C,4 | G,8 A,8 | E,16 | z8 z4 G,4 | F,4 E,4 G,8 | z8 z4 G,4 | F,4 E,4 G,8 | %50
w: e- le-|son, e- le-|* y-|son,|e-|le- y- son,|e-|le- y- son,|
w: ||||||||
 A,8 G,8- | G,8 D,8 | E,16 | D,8 B,,6 ^C,2 | D,16- | D,16 || G,8 F,4 E,4 | D,8 G,8 | z16 | %59
w: e- le-|* y-|son,|e- le- y-|son.|||||
w: ||||||Ky- * *|ri- e,||
 z4 G,4 F,4 E,4 | D,8 G,8 | G,12 D,4 | G,4 C,4 D,8 | G,,16 | z4 G,,4 G,,4 G,,4 | %65
w: ||||||
w: ky- * *|* ri-|e e-|le- * y-|son,|e- le- y-|
 D,6 C,2 D,2 B,,2 E,4- | E,4 D,4 C,8 | B,,8 z8 | z16 | z16 | z8 z4 G,4 | A,4 D,4 G,4 z2 G,2 | %72
w: |||||||
w: son, * * * *|||||e-|le- y- son, e-|
 A,4 D,4 G,4 D,4 | E,4 C,4 D,8 | G,,8 z4 G,4 | E,4 F,4 G,6 F,G, | A,4 D,4 G,4 z2 G,2 | %77
w: |||||
w: |* le- y-|son, e-||le- y- son, e-|
 A,4 D,4 G,4 D,4 | E,4 C,4 D,8 | G,,16- | G,,16 |] %81
w: ||||
w: le- * * *|* * y-|son.||

